assets/icons/qvision/add_to_home_screen.svg

<svg width="24" height="24" viewBox="0 0 24 24" fill="none" xmlns="http://www.w3.org/2000/svg">
<g clip-path="url(#clip0_147_2322)">
<path d="M18 1.01L8 1C6.9 1 6 1.9 6 3V6H8V5H18V19H8V18H6V21C6 22.1 6.9 23 8 23H18C19.1 23 20 22.1 20 21V3C20 1.9 19.1 1.01 18 1.01ZM10 15H12V8H5V10H8.59L3 15.59L4.41 17L10 11.41V15Z" fill="#323232"/>
</g>
<defs>
<clipPath id="clip0_147_2322">
<rect width="24" height="24" fill="white"/>
</clipPath>
</defs>
</svg>

<svg xmlns="http://www.w3.org/2000/svg" height="24" viewBox="0 0 24 24" width="24"><path d="M0 0h24v24H0V0z" fill="none"/><path d="M0 0h24v24H0V0z" fill="none"/><path d="M18 1.01L8 1c-1.1 0-2 .9-2 2v3h2V5h10v14H8v-1H6v3c0 1.1.9 2 2 2h10c1.1 0 2-.9 2-2V3c0-1.1-.9-1.99-2-1.99zM10 15h2V8H5v2h3.59L3 15.59 4.41 17 10 11.41z"/></svg>
